src/assets/images/home/sap.svg

<svg height="45" viewBox="0 0 90 45" width="90" xmlns="http://www.w3.org/2000/svg"><g fill="none" fill-rule="evenodd" transform=""><path d="m0 0v44.415h45.371l44.41-44.41h-89.781z" fill="#fff" fill-rule="nonzero"/><path d="m57.4688 39.875v3.3125h.5v-1.4375h.5624l.9063 1.4375h.5625l-.9688-1.4375c.4841-.06.875-.3415.875-.9375 0-.653-.3996-.9375-1.1874-.9375zm.5.4375h.6874c.3381 0 .7188.055.7188.4687 0 .5171-.3855.5626-.8125.5626h-.5937zm.625-1.6563c-1.586 0-2.9376 1.2221-2.9376 2.875 0 1.665 1.3515 2.9063 2.9376 2.9063 1.564 0 2.875-1.2411 2.875-2.9063 0-1.6529-1.311-2.875-2.875-2.875zm0 .4688c1.2939 0 2.3124 1.0453 2.3124 2.4062 0 1.3842-1.0185 2.4063-2.3124 2.4063-1.3161 0-2.375-1.0221-2.375-2.4063 0-1.3609 1.0589-2.4062 2.375-2.4062z" fill="#fff" fill-rule="nonzero"/><path d="m53.797 21.252h-1.946v-7.117h1.946c2.598 0 4.666.856 4.666 3.513 0 2.744-2.068 3.604-4.666 3.604m-20.945 5.088c-1.03 0-1.996-.188-2.831-.502l2.803-8.84h.06l2.745 8.864c-.827.296-1.768.478-2.774.478m20.426-17.987h-8.837v21.013l-7.72-21.013h-7.652l-6.596 17.568c-.697-4.428-5.284-5.961-8.89-7.104-2.377-.765-4.907-1.889-4.884-3.134.02-1.018 1.359-1.962 4-1.821 1.78.09 3.35.234 6.467 1.741l3.07-5.348c-2.844-1.453-6.785-2.365-10.009-2.372h-.02c-3.761 0-6.895 1.226-8.839 3.233-1.351 1.404-2.082 3.18-2.115 5.157-.05 2.708.947 4.63 3.034 6.167 1.766 1.294 4.019 2.127 6.009 2.751 2.455.757 4.459 1.418 4.436 2.827-.02.513-.211.994-.582 1.374-.611.635-1.55.87-2.849.899-2.504.05-4.361-.34-7.319-2.088l-2.729 5.423c2.949 1.679 6.44 2.661 10.003 2.661h.461c3.1-.06 5.604-.945 7.605-2.553l.324-.283-.884 2.376h8.025l1.348-4.099c1.41.477 3.016.745 4.716.745 1.659 0 3.224-.25 4.609-.706l1.296 4.06h13.094v-8.49h2.857c6.9 0 10.986-3.512 10.986-9.406 0-6.56-3.968-9.569-12.416-9.569" fill="#222"/></g></svg>

<?xml version="1.0" encoding="UTF-8"?>
<svg width="90px" height="45px" viewBox="0 0 90 45" version="1.1" xmlns="http://www.w3.org/2000/svg" xmlns:xlink="http://www.w3.org/1999/xlink">
    <!-- Generator: Sketch 63.1 (92452) - https://sketch.com -->
    <title>sap</title>
    <desc>Created with Sketch.</desc>
    <g id="Page-1" stroke="none" stroke-width="1" fill="none" fill-rule="evenodd">
        <g id="sap" fill="#FFFFFF" fill-rule="nonzero">
            <path d="M89.781,0.005 L45.371,44.415 L0,44.415 L0,0.005 L89.781,0.005 Z M12.23,7.883 L12.21,7.883 C8.449,7.883 5.315,9.109 3.371,11.116 C2.02,12.52 1.289,14.296 1.256,16.273 C1.206,18.981 2.203,20.903 4.29,22.44 C6.056,23.734 8.309,24.567 10.299,25.191 C12.754,25.948 14.758,26.609 14.735,28.018 C14.715,28.531 14.524,29.012 14.153,29.392 C13.542,30.027 12.603,30.262 11.304,30.291 C8.8,30.341 6.943,29.951 3.985,28.203 L1.256,33.626 C4.205,35.305 7.696,36.287 11.259,36.287 L11.72,36.287 C14.82,36.227 17.324,35.342 19.325,33.734 L19.649,33.451 L18.765,35.827 L26.79,35.827 L28.138,31.728 C29.548,32.205 31.154,32.473 32.854,32.473 C34.513,32.473 36.078,32.223 37.463,31.767 L38.759,35.827 L51.853,35.827 L51.853,27.337 L54.71,27.337 C61.61,27.337 65.696,23.825 65.696,17.931 C65.696,11.371 61.728,8.362 53.28,8.362 L53.281,8.353 L44.444,8.353 L44.444,29.366 L36.724,8.353 L29.072,8.353 L22.476,25.921 C21.779,21.493 17.192,19.96 13.586,18.817 C11.209,18.052 8.679,16.928 8.702,15.683 C8.722,14.665 10.061,13.721 12.702,13.862 C14.482,13.952 16.052,14.096 19.169,15.603 L22.239,10.255 C19.395,8.802 15.454,7.89 12.23,7.883 Z M32.884,16.998 L35.629,25.862 C34.802,26.158 33.861,26.34 32.855,26.34 L32.852,26.34 C31.822,26.34 30.856,26.152 30.021,25.838 L32.824,16.998 L32.884,16.998 Z M53.797,14.135 C56.395,14.135 58.463,14.991 58.463,17.648 C58.463,20.392 56.395,21.252 53.797,21.252 L51.851,21.252 L51.851,14.135 L53.797,14.135 Z" id="Path-2"></path>
            <path d="M57.4688,39.875 L57.4688,43.1875 L57.9688,43.1875 L57.9688,41.75 L58.5312,41.75 L59.4375,43.1875 L60,43.1875 L59.0312,41.75 C59.5153,41.69 59.9062,41.4085 59.9062,40.8125 C59.9062,40.1595 59.5066,39.875 58.7188,39.875 L57.4688,39.875 Z M57.9688,40.3125 L58.6562,40.3125 C58.9943,40.3125 59.375,40.3675 59.375,40.7812 C59.375,41.2983 58.9895,41.3438 58.5625,41.3438 L57.9688,41.3438 L57.9688,40.3125 Z M58.5938,38.6562 C57.0078,38.6562 55.6562,39.8783 55.6562,41.5312 C55.6562,43.1962 57.0077,44.4375 58.5938,44.4375 C60.1578,44.4375 61.4688,43.1964 61.4688,41.5312 C61.4688,39.8783 60.1578,38.6562 58.5938,38.6562 Z M58.5938,39.125 C59.8877,39.125 60.9062,40.1703 60.9062,41.5312 C60.9062,42.9154 59.8877,43.9375 58.5938,43.9375 C57.2777,43.9375 56.2188,42.9154 56.2188,41.5312 C56.2188,40.1703 57.2777,39.125 58.5938,39.125 Z" id="Shape"></path>
        </g>
    </g>
</svg>
